General Stratagems/Reinforce.svg

<svg xmlns="http://www.w3.org/2000/svg" viewBox="0 0 126 126">
<path fill="#fff" d="M85 108H23l-8-9V89h17l10 9h24l10-9h17v10Z"/>
<path fill="#fff" d="M54 94 31 77V57h4c0-18.7 19-19 19-19s19 .3 19 19h4v20Zm14-37H40v14h7l3-4h8l3 4h7V57Z"/>
<path fill="#fff" d="M116 42H98v17h-5V42H76v-5h17V19h5v18h18v5Z"/>
<path fill="#c9b269" d="M4 122v-20l20 20H4Zm118 0v-20l-20 20h20Zm0-118v20L102 4h20ZM4 4v20L24 4H4Z"/>
</svg>

<svg id="Reinforce" xmlns="http://www.w3.org/2000/svg" xmlns:xlink="http://www.w3.org/1999/xlink" viewBox="0 0 126 126">
  <defs>
    <style>
      .cls-1 {
        fill: #fff;
      }

      .cls-1, .cls-2 {
        fill-rule: evenodd;
      }

      .cls-2 {
        fill: #c9b269;
      }
    </style>
  </defs>
  <g>
    <path id="Shape_1_copy" data-name="Shape 1 copy" class="cls-1" d="M85,108H23l-8-9V89H32l10,9H66l10-9H93V99Z"/>
    <path class="cls-1" d="M54,94L31,77V57h4c0-18.7,19-19,19-19s19,0.3,19,19h4V77ZM68,57H40V71h7l3-4h8l3,4h7V57Z"/>
    <path id="Rectangle_1_copy" data-name="Rectangle 1 copy" class="cls-1" d="M116,42H98V59H93V42H76V37H93V19h5V37h18v5Z"/>
    <path class="cls-2" d="M4,122V102l20,20H4Zm118,0V102l-20,20h20ZM122,4V24L102,4h20ZM4,4V24L24,4H4Z"/>
  </g>
</svg>
